Newaita/actions/24/mail-signed-verified.svg

<?xml version="1.0" encoding="UTF-8"?>
<svg xmlns="http://www.w3.org/2000/svg" xmlns:xlink="http://www.w3.org/1999/xlink" width="24pt" height="24pt" viewBox="0 0 24 24" version="1.1">
<g id="surface1">
<path style=" stroke:none;fill-rule:nonzero;fill:rgb(25.882354%,25.882354%,25.882354%);fill-opacity:1;" d="M 2.976562 3.164062 C 1.878906 3.164062 0.992188 4.050781 0.992188 5.148438 L 0.992188 19.535156 C 0.992188 20.636719 1.878906 21.523438 2.976562 21.523438 L 14.386719 21.523438 L 14.386719 20.03125 L 3.472656 20.03125 C 2.921875 20.03125 2.480469 19.589844 2.480469 19.039062 L 2.480469 5.800781 L 11.335938 13.726562 C 11.660156 14.015625 12.152344 14.015625 12.480469 13.726562 L 21.335938 5.800781 L 21.335938 13.085938 L 22.824219 13.085938 L 22.824219 5.148438 C 22.824219 4.050781 21.9375 3.164062 20.839844 3.164062 Z M 3.765625 4.652344 L 20.050781 4.652344 L 11.90625 11.9375 Z M 3.765625 4.652344 "/>
<path style=" stroke:none;fill-rule:nonzero;fill:rgb(14.901961%,65.098041%,60.392159%);fill-opacity:1;" d="M 22.085938 14.015625 C 21.835938 14.019531 21.59375 14.152344 21.457031 14.386719 L 18.472656 19.558594 L 16.355469 17.445312 C 16.0625 17.152344 15.59375 17.152344 15.304688 17.445312 C 15.011719 17.734375 15.011719 18.203125 15.304688 18.496094 L 18.050781 21.242188 C 18.105469 21.3125 18.175781 21.371094 18.257812 21.421875 C 18.332031 21.464844 18.414062 21.492188 18.496094 21.507812 C 18.5 21.507812 18.507812 21.511719 18.515625 21.511719 C 18.742188 21.550781 18.984375 21.480469 19.164062 21.304688 C 19.234375 21.230469 19.289062 21.148438 19.324219 21.058594 L 22.746094 15.132812 C 22.953125 14.777344 22.832031 14.320312 22.476562 14.117188 C 22.351562 14.046875 22.21875 14.011719 22.085938 14.015625 Z M 22.085938 14.015625 "/>
</g>
</svg>

<svg xmlns="http://www.w3.org/2000/svg" width="32" height="32" viewBox="0 0 24 24"><path d="M2.977 3.164A1.982 1.982 0 0 0 .992 5.148v14.387c0 1.102.887 1.988 1.985 1.988h11.41v-1.492H3.473a.989.989 0 0 1-.993-.992V5.801l8.856 7.926c.324.289.816.289 1.144 0L21.336 5.8v7.285h1.488V5.148a1.982 1.982 0 0 0-1.984-1.984zm.789 1.488H20.05l-8.145 7.285zm0 0" fill="#424242"/><path d="M22.086 14.016a.742.742 0 0 0-.629.37l-2.984 5.173-2.118-2.114a.738.738 0 0 0-1.05 0 .738.738 0 0 0 0 1.051l2.746 2.746c.054.07.125.13.207.18a.76.76 0 0 0 .238.086c.004 0 .012.004.02.004a.746.746 0 0 0 .648-.207.763.763 0 0 0 .16-.246l3.422-5.926a.74.74 0 0 0-.27-1.016.75.75 0 0 0-.39-.101zm0 0" fill="#26a69a"/></svg>
